img/techno-polymer.svg

<svg width="100" height="99" viewBox="0 0 100 99" fill="none" xmlns="http://www.w3.org/2000/svg">
<path d="M0.153922 49.5046C-1.94002 28.0418 17.4698 0.122665 49.869 0.000384636C77.4765 -0.107223 100.005 22.3778 100 49.5975C100 76.8759 77.4913 98.8229 49.7799 98.999C19.638 99.1897 -1.77667 72.8847 0.153922 49.5046Z" fill="#707070"/>
<path d="M89.842 49.485C89.8915 71.5494 72.1053 89.2654 49.8689 89.2996C27.5879 89.3339 9.65327 71.6765 9.62357 49.6855C9.59387 27.631 27.38 9.95404 49.6511 9.90513C71.9618 9.85622 89.7925 27.4157 89.842 49.485Z" fill="#DADADA"/>
<path d="M26.207 44.5692C30.0583 25.8749 53.2006 20.4114 64.3337 30.9276C50.2503 45.1073 41.4686 51.0599 27.5485 45.4692C26.9397 45.4056 26.4842 45.1122 26.207 44.5692Z" fill="#707070"/>
<path d="M26.2071 44.5693C26.6526 44.8676 27.4843 44.941 27.5486 45.4692C28.3308 51.7789 26.8754 52.8599 26.3952 56.543L26.4893 56.4354C24.5438 56.3425 22.5142 56.5723 20.6777 56.0832C17.2769 55.1832 12.0247 54.2686 11.896 51.2507C11.7277 47.46 16.4205 44.7209 19.554 42.2459C22.0093 40.3041 23.7964 44.1682 26.2121 44.5693H26.2071Z" fill="#707070"/>
<path d="M53.8143 47.0296C47.9185 52.1801 41.7951 57.0958 36.2113 62.5593C32.0679 66.6141 30.0928 64.7946 28.2661 60.7544C27.6276 59.3409 27.0781 57.8784 26.494 56.4404L26.3999 56.548C37.1963 58.0496 45.3345 52.9774 52.75 46.1345C53.2945 46.2128 53.6509 46.5111 53.8143 47.0296Z" fill="#707070"/>
<path d="M53.8143 47.0296C53.4579 46.7312 53.1015 46.4328 52.75 46.1345C56.1261 43.1802 59.4774 40.1965 62.8831 37.2813C68.0016 32.8939 68.1799 32.9477 71.5213 38.9933C72.0806 40.0008 72.7291 40.9595 73.3528 41.928C73.3627 41.9133 73.4568 41.8057 73.4617 41.7959C66.8581 43.3024 59.7991 43.185 53.8193 47.0296H53.8143Z" fill="#707070"/>
<path d="M73.2836 54.1512C69.3631 72.8309 46.2009 78.2063 35.1025 67.6511C49.2404 53.5252 58.0419 47.6068 71.9421 53.2464C72.551 53.3148 73.0064 53.6034 73.2836 54.1512Z" fill="#707070"/>
<path d="M73.2833 54.1512C72.8378 53.848 72.0062 53.7746 71.9418 53.2464C71.1844 46.9367 72.6447 45.8557 73.1398 42.1775L73.0457 42.2851C74.9911 42.3878 77.0207 42.1628 78.8573 42.6568C82.2531 43.5715 87.5004 44.5057 87.6241 47.5236C87.7776 51.3143 83.0749 54.0338 79.9315 56.5039C77.4663 58.4408 75.6941 54.567 73.2833 54.1561V54.1512Z" fill="#707070"/>
<path d="M22.2119 28.8832L21.3307 30.1843L25.1374 32.7033L24.4791 33.6767L20.6723 31.1577L19.7912 32.4538L18.9893 31.9207L21.4099 28.3501L22.2119 28.8832Z" fill="#707070"/>
<path d="M28.6028 28.5557L26.4148 30.9768L22.2764 27.328L24.3753 24.9998L25.098 25.6356L23.7862 27.0932L24.7614 27.9541L25.9841 26.6041L26.7019 27.2399L25.4792 28.5899L26.4791 29.4752L27.88 27.9247L28.6028 28.5606V28.5557Z" fill="#707070"/>
<path d="M32.5378 25.2294L31.4586 26.1196L29.5132 25.3517C29.4439 25.3223 29.335 25.2538 29.1964 25.1462L29.1865 25.156C29.2261 25.2343 29.2756 25.3565 29.3251 25.518L29.731 27.538L28.6469 28.4331L28.236 25.2L25.2114 24.1288L26.3153 23.2191L28.038 23.9821C28.1766 24.0457 28.3202 24.124 28.4637 24.2218L28.4736 24.212C28.4142 24.0653 28.3598 23.9087 28.3103 23.7327L27.9341 21.8789L28.9488 21.0425L29.4241 24.1924L32.5378 25.2245V25.2294Z" fill="#707070"/>
<path d="M37.0275 22.6615L36.0028 23.2436L34.8642 21.2822L32.8099 22.4414L33.9484 24.4028L32.9237 24.9849L30.1714 20.2257L31.1961 19.6436L32.3099 21.561L34.3593 20.4018L33.2455 18.4795L34.2702 17.8975L37.0225 22.6566L37.0275 22.6615Z" fill="#707070"/>
<path d="M36.8051 19.81C36.5229 18.998 36.5378 18.2546 36.8447 17.5845C37.1516 16.9144 37.6961 16.4448 38.4832 16.1807C39.2357 15.9263 39.9237 15.9704 40.5524 16.3127C41.1811 16.6502 41.6266 17.2078 41.8939 17.9855C42.1711 18.7926 42.1612 19.5312 41.8593 20.1915C41.5573 20.8567 41.0227 21.3165 40.2504 21.5757C39.498 21.8301 38.8 21.7909 38.1664 21.4583C37.5328 21.1257 37.0774 20.5779 36.815 19.81H36.8051ZM37.9585 19.3551C38.1318 19.8589 38.3991 20.2306 38.7555 20.4703C39.1119 20.71 39.503 20.754 39.9336 20.6121C40.3742 20.4654 40.6613 20.1964 40.7999 19.8051C40.9385 19.4138 40.9187 18.9638 40.7405 18.4453C40.5524 17.9073 40.2901 17.516 39.9435 17.2812C39.597 17.0464 39.2109 17.0024 38.7802 17.1491C38.3397 17.2959 38.0525 17.5747 37.909 17.9807C37.7654 18.3866 37.7852 18.8464 37.9634 19.3551H37.9585Z" fill="#707070"/>
<path d="M45.2404 18.5187L43.1563 18.8953L43.0078 18.1029L45.0919 17.7263L45.2404 18.5187Z" fill="#707070"/>
<path d="M51.2546 19.8197L50.0715 19.8637L49.9081 15.4127L47.5469 15.4959L47.7102 19.9469L46.5271 19.9909L46.3291 14.5127L51.0566 14.3464L51.2546 19.8246V19.8197Z" fill="#707070"/>
<path d="M52.3735 17.1884C52.5072 16.3373 52.8636 15.6867 53.4477 15.2319C54.0319 14.777 54.7348 14.6107 55.5615 14.733C56.3436 14.8503 56.9376 15.2074 57.3337 15.7944C57.7297 16.3813 57.8683 17.0807 57.7396 17.8878C57.6059 18.734 57.2545 19.3796 56.6753 19.8296C56.0961 20.2796 55.4031 20.4459 54.6011 20.3236C53.8141 20.2062 53.2151 19.8541 52.8042 19.2671C52.3933 18.6802 52.2498 17.9905 52.3735 17.1884ZM53.6111 17.3106C53.5269 17.8389 53.5913 18.2889 53.7943 18.6606C53.9972 19.0323 54.3239 19.2573 54.7744 19.3209C55.2298 19.3894 55.611 19.2818 55.9179 19.003C56.2248 18.7193 56.4179 18.3084 56.502 17.7704C56.5911 17.2079 56.5367 16.7432 56.3387 16.3764C56.1407 16.0096 55.8189 15.7944 55.3684 15.7259C54.9081 15.6574 54.5219 15.7699 54.2101 16.0634C53.8933 16.3568 53.6952 16.7726 53.6111 17.3057V17.3106Z" fill="#707070"/>
<path d="M62.1847 22.3142L61.0709 21.9278L62.5856 17.6822L61.4966 17.3007C60.5362 19.13 59.8531 20.2404 59.4521 20.6365C59.0462 21.0327 58.5858 21.1403 58.0661 20.9594C57.8433 20.8811 57.6502 20.7735 57.4819 20.6414L57.7987 19.7561C57.9225 19.8588 58.0364 19.9273 58.1403 19.9616C58.2146 19.986 58.2987 19.9909 58.3779 19.9713C58.4621 19.9518 58.566 19.8833 58.6848 19.7708C58.8086 19.6583 58.9967 19.4088 59.2541 19.0175C59.5115 18.6262 59.7838 18.1567 60.0808 17.6089L60.9174 16.0583L64.0261 17.1442L62.1797 22.3142H62.1847Z" fill="#707070"/>
<path d="M67.4026 25.1903L66.4373 24.6327L68.0312 21.9426C68.1946 21.6638 68.358 21.4192 68.5114 21.2089L68.4916 21.1942C68.4174 21.248 68.2639 21.3312 68.0362 21.4486L64.1948 23.3366L63.1553 22.7349L65.9571 18.0051L66.9224 18.5627L65.3235 21.2578C65.1304 21.5855 64.9918 21.7958 64.9077 21.8937H64.9176L69.1005 19.8198L70.2093 20.4605L67.4075 25.1903H67.4026Z" fill="#707070"/>
<path d="M72.0063 29.1524L74.2933 26.7117C74.5061 26.4867 74.7784 26.2128 75.1249 25.8949L75.1051 25.8753C74.813 26.0856 74.6051 26.2177 74.4962 26.2764L70.8925 28.1302L70.1994 27.4992L71.7538 23.821C71.7885 23.733 71.9172 23.5128 72.135 23.1607L72.1102 23.1411C71.8182 23.4982 71.5112 23.8503 71.1944 24.1878L69.0658 26.4623L68.2837 25.7481L72.0508 21.7227L73.3131 22.877L71.9122 26.1101C71.7984 26.3791 71.6696 26.6139 71.531 26.8144L71.5508 26.8291C71.8132 26.6579 72.0459 26.521 72.2538 26.4134L75.4071 24.7944L76.6347 25.9144L72.8676 29.9399L72.0112 29.1573L72.0063 29.1524Z" fill="#707070"/>
<path d="M75.4266 33.4322L73.4663 30.8301L77.9166 27.5579L79.7976 30.0622L79.0205 30.6344L77.8423 29.0693L76.7929 29.8421L77.8869 31.2948L77.1146 31.8621L76.0206 30.4095L74.9415 31.2018L76.1939 32.8697L75.4167 33.442L75.4266 33.4322Z" fill="#707070"/>
<path d="M78.0802 34.1609L76.3773 35.0707L75.813 34.0436L80.689 31.4316L81.5998 33.0898C82.2582 34.2881 82.0701 35.1636 81.0454 35.7164C80.5454 35.9854 80.0454 36.0196 79.5455 35.8191C79.0455 35.6185 78.6544 35.2419 78.3673 34.6941L78.0752 34.1658L78.0802 34.1609ZM80.4514 32.8892L78.8772 33.7305L79.1197 34.1756C79.4514 34.7772 79.8821 34.9387 80.4118 34.655C80.9315 34.3762 81.0256 33.9408 80.6989 33.3441L80.4514 32.8892Z" fill="#707070"/>
<path d="M79.8821 67.7441L80.6197 66.3599L76.5654 64.2518L77.1149 63.2148L81.1691 65.323L81.9018 63.9436L82.7582 64.3887L80.7335 68.1892L79.8771 67.7441H79.8821Z" fill="#707070"/>
<path d="M73.5656 68.7321L75.4813 66.0957L79.986 69.2946L78.1445 71.8282L77.3574 71.2706L78.5059 69.6859L77.4416 68.9326L76.3723 70.4049L75.5902 69.8522L76.6595 68.3799L75.5704 67.6071L74.3427 69.2946L73.5557 68.737L73.5656 68.7321Z" fill="#707070"/>
<path d="M70.4912 72.2441C70.6298 71.8235 70.9219 71.3784 71.3724 70.9186C71.9515 70.3219 72.5901 70.0235 73.293 70.0186C73.996 70.0137 74.6445 70.2925 75.2434 70.8648C75.8721 71.4664 76.1988 72.1512 76.2236 72.924C76.2483 73.6968 75.9563 74.3914 75.3523 75.0077C74.9761 75.3941 74.6098 75.668 74.2583 75.8294L73.4366 75.0468C73.8524 74.9294 74.2286 74.7044 74.5603 74.3669C74.9365 73.9805 75.1147 73.555 75.09 73.0854C75.0652 72.6159 74.8524 72.1903 74.4514 71.8088C74.0603 71.4371 73.6346 71.2463 73.1841 71.2365C72.7337 71.2268 72.3228 71.4126 71.9565 71.7844C71.6149 72.1365 71.3872 72.5376 71.2783 72.9925L70.4962 72.249L70.4912 72.2441Z" fill="#707070"/>
<path d="M65.9717 75.3746L66.9271 74.685L68.2785 76.5094L70.1843 75.1301L68.8329 73.3056L69.7883 72.616L73.0654 77.0376L72.11 77.7273L70.7882 75.942L68.8824 77.3213L70.2041 79.1066L69.2487 79.7963L65.9717 75.3746Z" fill="#707070"/>
<path d="M60.5958 77.9862L61.6898 77.4775L65.3381 79.7079C65.5262 79.8253 65.6698 79.9231 65.7688 80.0014L65.7836 79.9916C65.6846 79.8302 65.551 79.571 65.3777 79.2139L64.0411 76.3917L65.0559 75.9221L67.4073 80.8867L66.239 81.4248L62.7095 79.253C62.4769 79.1063 62.3284 79.0134 62.2739 78.9742L62.259 78.984C62.3382 79.0916 62.4571 79.3166 62.6155 79.6541L63.957 82.4861L62.9422 82.9557L60.5908 77.9911L60.5958 77.9862Z" fill="#707070"/>
<path d="M60.576 80.8331C60.7839 81.6646 60.7096 82.4032 60.3483 83.0489C59.9869 83.6945 59.4028 84.1151 58.5909 84.3108C57.8237 84.4967 57.1405 84.3988 56.5415 84.0075C55.9475 83.6162 55.5465 83.0244 55.3485 82.2271C55.1406 81.4005 55.2149 80.6668 55.5762 80.031C55.9327 79.3951 56.5069 78.9794 57.2989 78.7886C58.0712 78.5978 58.7592 78.6957 59.3681 79.0772C59.977 79.4587 60.378 80.0456 60.576 80.8331ZM59.383 81.1902C59.2543 80.6717 59.0216 80.2804 58.685 80.0114C58.3484 79.7424 57.9623 79.6641 57.5217 79.7717C57.0712 79.8793 56.7594 80.1239 56.591 80.5005C56.4178 80.8772 56.398 81.332 56.5316 81.8603C56.6702 82.413 56.9029 82.8239 57.2247 83.0831C57.5464 83.3472 57.9326 83.4206 58.3731 83.313C58.8236 83.2054 59.1355 82.951 59.3137 82.5597C59.4919 82.1684 59.5117 81.7087 59.383 81.1853V81.1902Z" fill="#707070"/>
<path d="M52.0566 81.4103L54.1654 81.2097L54.2446 82.0119L52.1358 82.2124L52.0566 81.4103Z" fill="#707070"/>
<path d="M49.6411 81.6744L49.6956 79.762L50.8787 79.7962L50.7203 85.2744L48.8144 85.2206C47.4333 85.1814 46.7601 84.5847 46.7947 83.4304C46.8096 82.8679 47.0323 82.4228 47.4581 82.1C47.8838 81.7771 48.4085 81.6255 49.0372 81.6598L49.6461 81.6793L49.6411 81.6744ZM49.5619 84.3401L49.6114 82.5695L49.1015 82.5549C48.4085 82.5353 48.0521 82.8239 48.0323 83.4206C48.0174 84.0027 48.3491 84.3059 49.0372 84.3255L49.5619 84.3401Z" fill="#707070"/>
<path d="M46.0816 82.3102C45.9084 83.1515 45.5223 83.7873 44.9134 84.2178C44.3095 84.6482 43.5966 84.7803 42.7798 84.6189C42.0026 84.4623 41.4284 84.0808 41.0621 83.4792C40.6908 82.8727 40.5918 82.1684 40.7552 81.3662C40.9284 80.5298 41.3096 79.8988 41.9135 79.4782C42.5125 79.0575 43.2105 78.9255 44.0075 79.082C44.7847 79.2385 45.3688 79.6151 45.75 80.2216C46.1311 80.8233 46.245 81.5227 46.0816 82.32V82.3102ZM44.849 82.1292C44.9579 81.6059 44.9134 81.1559 44.7302 80.7695C44.5421 80.3879 44.2253 80.1532 43.7847 80.0602C43.3293 79.9673 42.9432 80.0602 42.6264 80.3244C42.3096 80.5885 42.0967 80.9945 41.9828 81.5325C41.869 82.0901 41.8987 82.5597 42.0818 82.9314C42.2601 83.3031 42.5719 83.5379 43.0224 83.6259C43.4778 83.7189 43.8689 83.6259 44.1956 83.3422C44.5273 83.0634 44.7451 82.6575 44.854 82.1243L44.849 82.1292Z" fill="#707070"/>
<path d="M37.5773 77.199L40.6267 78.3288L38.6763 83.4598L37.5674 83.0489L39.1812 78.8131L37.2407 78.0941L37.5823 77.199H37.5773Z" fill="#707070"/>
<path d="M31.3253 80.1532L34.5825 77.8592L35.4983 76.1228L36.5478 76.6608L35.6419 78.3777L35.5429 82.3249L34.3449 81.7086L34.4984 79.4244C34.4984 79.3804 34.5281 79.2287 34.5825 78.9793H34.5677C34.4637 79.1065 34.3647 79.2141 34.2657 79.2923L32.4341 80.7206L31.3203 80.1483L31.3253 80.1532Z" fill="#707070"/>
<path d="M29.553 71.9995L27.4491 74.5968C27.2561 74.8365 26.9986 75.1299 26.6818 75.4723L26.7016 75.4919C26.9788 75.262 27.1719 75.1153 27.2808 75.0468L30.741 72.9435L31.4736 73.5256L30.1866 77.3016C30.1569 77.3946 30.043 77.6196 29.8549 77.9864L29.8797 78.006C30.147 77.6293 30.4242 77.2576 30.7212 76.8957L32.6815 74.4745L33.5131 75.1348L30.043 79.4146L28.7015 78.3533L29.8648 75.0272C29.9589 74.7533 30.0678 74.5087 30.1915 74.2984L30.1717 74.2837C29.9242 74.4696 29.7015 74.6261 29.4985 74.7484L26.469 76.5875L25.1621 75.5555L28.6322 71.2756L29.5431 71.9946L29.553 71.9995Z" fill="#707070"/>
<path d="M25.8403 67.9788L27.9837 70.4391L23.781 74.0145L21.7217 71.6521L22.4543 71.0309L23.7414 72.508L24.7314 71.6668L23.5335 70.2923L24.2661 69.6711L25.4641 71.0456L26.4838 70.1798L25.1126 68.6048L25.8452 67.9837L25.8403 67.9788Z" fill="#707070"/>
<path d="M22.9542 63.5769L23.6819 64.7117L22.9295 66.1986C22.7711 66.5068 22.6869 66.7318 22.677 66.8687C22.6671 67.0057 22.6968 67.1328 22.7612 67.2405L22.9542 67.5388L24.771 66.404L25.4046 67.3921L20.7167 70.3219L19.6772 68.698C18.9742 67.5975 19.0435 66.7807 19.89 66.2475C20.2068 66.047 20.5435 65.9687 20.89 66.0128C21.2365 66.0568 21.5583 66.2084 21.8602 66.4725L21.8701 66.4627C21.8058 66.2035 21.8949 65.8171 22.1325 65.3084L22.9641 63.5671L22.9542 63.5769ZM20.8405 68.8643L22.1919 68.0231L21.88 67.5388C21.7315 67.3089 21.5434 67.1622 21.3206 67.1084C21.0929 67.0546 20.8801 67.0888 20.6771 67.216C20.2514 67.4801 20.2019 67.8616 20.5237 68.3654L20.8454 68.8692L20.8405 68.8643Z" fill="#707070"/>
</svg>

<svg width="100" height="99" fill="none" xmlns="http://www.w3.org/2000/svg"><path d="M.154 49.505C-1.94 28.042 17.47.123 49.869 0 77.477-.107 100.005 22.378 100 49.597 100 76.876 77.491 98.823 49.78 99 19.638 99.189-1.777 72.885.154 49.505z" fill="#707070"/><path d="M89.842 49.485c.05 22.064-17.737 39.78-39.973 39.815-22.281.034-40.216-17.623-40.245-39.614C9.594 27.63 27.38 9.953 49.65 9.905c22.31-.05 40.142 17.51 40.191 39.579z" fill="#DADADA"/><path d="M26.207 44.57c3.851-18.695 26.994-24.159 38.127-13.642C50.25 45.108 41.469 51.06 27.549 45.469c-.61-.063-1.065-.357-1.342-.9z" fill="#707070"/><path d="M26.207 44.57c.446.298 1.277.371 1.342.9.782 6.309-.674 7.39-1.154 11.073l.094-.108c-1.945-.093-3.975.137-5.811-.352-3.401-.9-8.653-1.814-8.782-4.832-.168-3.791 4.524-6.53 7.658-9.005 2.455-1.942 4.242 1.922 6.658 2.323h-.005zm27.607 2.46c-5.895 5.15-12.019 10.066-17.603 15.53-4.143 4.054-6.118 2.235-7.945-1.806-.638-1.413-1.188-2.876-1.772-4.314l-.094.108c10.796 1.502 18.934-3.57 26.35-10.413.544.078.9.376 1.064.895z" fill="#707070"/><path d="M53.814 47.03c-.356-.299-.712-.597-1.064-.895 3.376-2.955 6.727-5.938 10.133-8.854 5.119-4.387 5.297-4.333 8.638 1.712.56 1.008 1.208 1.966 1.832 2.935.01-.015.104-.122.109-.132-6.604 1.506-13.663 1.389-19.643 5.234h-.005zm19.47 7.121c-3.92 18.68-27.083 24.055-38.182 13.5 14.138-14.126 22.94-20.044 36.84-14.405.609.069 1.064.357 1.342.905z" fill="#707070"/><path d="M73.283 54.151c-.445-.303-1.277-.376-1.341-.905-.758-6.31.703-7.39 1.198-11.069l-.094.108c1.945.103 3.975-.122 5.811.372 3.396.915 8.643 1.849 8.767 4.867.154 3.79-4.55 6.51-7.692 8.98-2.466 1.937-4.238-1.937-6.649-2.348v-.005zM22.212 28.883l-.881 1.301 3.806 2.52-.658.973-3.807-2.52-.88 1.297-.803-.533 2.42-3.57.803.532zm6.391-.327l-2.188 2.42-4.139-3.648 2.1-2.328.722.636-1.312 1.457.975.861 1.223-1.35.718.636-1.223 1.35 1 .885 1.401-1.55.723.636v-.005zm3.935-3.326l-1.08.89-1.945-.768a1.642 1.642 0 01-.317-.206l-.01.01c.04.078.09.2.14.362l.405 2.02-1.084.895-.411-3.233-3.025-1.071 1.104-.91 1.723.763c.139.064.282.142.426.24l.01-.01a4.539 4.539 0 01-.164-.48l-.376-1.853 1.015-.837.475 3.15 3.114 1.032v.005zm4.49-2.568l-1.025.582-1.139-1.962-2.054 1.16 1.138 1.96-1.024.583-2.753-4.76 1.025-.581 1.114 1.917 2.05-1.16-1.114-1.921 1.024-.582 2.752 4.759.006.005zm-.223-2.852c-.282-.812-.267-1.555.04-2.226.307-.67.851-1.14 1.638-1.403.753-.255 1.44-.21 2.07.132.628.337 1.074.895 1.34 1.672.278.808.268 1.546-.034 2.207-.302.665-.836 1.125-1.609 1.384-.752.254-1.45.215-2.084-.118-.633-.332-1.089-.88-1.351-1.648h-.01zm1.154-.455c.173.504.44.876.796 1.115.357.24.748.284 1.179.142.44-.147.727-.416.866-.807.139-.391.119-.841-.06-1.36-.188-.538-.45-.929-.797-1.164-.346-.235-.732-.279-1.163-.132-.44.147-.727.426-.871.832-.144.406-.124.865.054 1.374h-.005zm7.281-.836l-2.084.376-.148-.792 2.084-.377.148.793zm6.015 1.301l-1.184.044-.163-4.451-2.361.083.163 4.45-1.183.045-.198-5.478 4.728-.167.198 5.479v-.005zm1.118-2.632c.134-.85.49-1.501 1.075-1.956.584-.455 1.287-.621 2.114-.499.782.117 1.376.474 1.772 1.061.396.587.534 1.287.406 2.094-.134.846-.486 1.492-1.065 1.942-.579.45-1.272.616-2.074.494-.787-.118-1.386-.47-1.797-1.057-.41-.587-.554-1.276-.43-2.079zm1.238.123c-.084.528-.02.978.183 1.35.203.371.53.596.98.66.456.068.837-.04 1.144-.318.307-.284.5-.695.584-1.233.09-.562.035-1.027-.163-1.394-.198-.366-.52-.582-.97-.65-.46-.069-.847.044-1.159.337-.317.294-.515.71-.599 1.243v.005zm8.574 5.003l-1.114-.386 1.515-4.246-1.09-.381c-.96 1.829-1.643 2.94-2.044 3.336-.406.396-.866.503-1.386.322a2.024 2.024 0 01-.584-.318l.317-.885c.123.103.237.171.341.206a.447.447 0 00.238.01c.084-.02.188-.089.307-.201.124-.113.312-.362.57-.754.256-.39.529-.86.826-1.408l.836-1.55 3.11 1.085-1.847 5.17h.005zm5.218 2.876l-.966-.557 1.594-2.69c.164-.28.327-.524.48-.734l-.02-.015a4.43 4.43 0 01-.455.255l-3.841 1.888-1.04-.602 2.802-4.73.965.558-1.599 2.695c-.193.328-.331.538-.415.636h.01L69.1 19.82l1.11.64-2.802 4.73h-.005zm4.603 3.962l2.287-2.44c.213-.225.485-.5.832-.817l-.02-.02c-.292.21-.5.343-.609.401l-3.603 1.854-.694-.63 1.555-3.679c.034-.088.163-.308.381-.66l-.025-.02c-.292.357-.599.71-.916 1.047l-2.128 2.274-.782-.714 3.767-4.025 1.262 1.154-1.4 3.233a3.93 3.93 0 01-.382.704l.02.015c.262-.171.495-.308.703-.416l3.153-1.619 1.228 1.12-3.767 4.026-.857-.783-.005-.005zm3.421 4.28l-1.96-2.602 4.45-3.272 1.88 2.504-.776.572-1.179-1.565-1.05.773 1.095 1.453-.772.567-1.094-1.452-1.08.792 1.253 1.668-.777.572.01-.01zm2.653.728l-1.703.91-.564-1.026 4.876-2.612.91 1.658c.66 1.198.471 2.074-.554 2.626-.5.27-1 .304-1.5.103-.5-.2-.89-.577-1.178-1.125l-.292-.528.005-.005zm2.371-1.27l-1.574.84.243.446c.331.601.762.763 1.292.479.52-.279.614-.714.287-1.31l-.248-.456zm-.569 34.854l.738-1.384-4.055-2.108.55-1.037 4.054 2.108.733-1.38.856.446-2.024 3.8-.857-.445h.005zm-6.316.988l1.915-2.636 4.505 3.199-1.842 2.533-.787-.557 1.149-1.585-1.064-.753-1.07 1.472-.782-.553 1.07-1.472-1.09-.773-1.227 1.688-.787-.558.01-.005zm-3.075 3.512c.139-.42.43-.866.881-1.325.58-.597 1.218-.895 1.921-.9.703-.005 1.351.273 1.95.846.63.601.956 1.286.98 2.059.025.773-.267 1.467-.87 2.084-.377.386-.743.66-1.095.821l-.821-.782a2.522 2.522 0 001.123-.68c.376-.386.555-.812.53-1.282-.025-.47-.238-.895-.639-1.276-.39-.372-.816-.563-1.267-.572-.45-.01-.861.176-1.227.547-.342.352-.57.754-.679 1.209l-.782-.744-.005-.005zm-4.519 3.131l.955-.69 1.351 1.824 1.906-1.379-1.351-1.824.955-.69 3.277 4.422-.955.69-1.322-1.786-1.906 1.38 1.322 1.785-.955.69-3.277-4.422zm-5.376 2.611l1.094-.508 3.648 2.23c.188.117.332.215.43.293l.016-.01a10.07 10.07 0 01-.406-.777l-1.337-2.822 1.015-.47 2.351 4.965-1.168.538-3.53-2.172c-.232-.147-.38-.24-.435-.279l-.015.01c.08.108.198.333.356.67l1.342 2.832-1.015.47-2.351-4.965.005-.005zm-.02 2.847c.208.832.134 1.57-.228 2.216-.361.645-.945 1.066-1.757 1.262-.767.186-1.45.088-2.05-.304-.593-.39-.994-.983-1.192-1.78-.208-.827-.134-1.56.227-2.196.357-.636.93-1.052 1.723-1.242.772-.191 1.46-.093 2.07.288.608.382 1.009.969 1.207 1.756zm-1.193.357c-.129-.518-.361-.91-.698-1.179-.337-.269-.723-.347-1.163-.24-.45.108-.763.353-.931.73-.173.376-.193.831-.06 1.36.14.552.372.963.694 1.222.321.264.708.338 1.148.23.45-.108.763-.362.94-.753.179-.392.199-.851.07-1.375v.005zm-7.326.22l2.108-.2.08.802-2.11.2-.078-.802zm-2.416.264l.055-1.912 1.183.034-.159 5.478-1.906-.053c-1.38-.04-2.054-.636-2.02-1.79.016-.563.238-1.008.664-1.331.426-.323.95-.474 1.58-.44l.608.02-.005-.006zm-.08 2.666l.05-1.77-.51-.015c-.693-.02-1.049.269-1.069.866-.015.582.317.885 1.005.904l.525.015zm-3.479-2.03c-.174.841-.56 1.477-1.169 1.908-.603.43-1.316.562-2.133.4-.777-.156-1.352-.537-1.718-1.139-.371-.606-.47-1.31-.307-2.113.173-.836.555-1.467 1.158-1.888.6-.42 1.298-.552 2.095-.396.777.157 1.36.533 1.742 1.14.381.601.495 1.3.332 2.098v-.01zm-1.233-.18c.109-.524.064-.974-.119-1.36-.188-.382-.505-.617-.945-.71-.456-.093-.842 0-1.159.264-.316.264-.53.67-.643 1.209-.114.557-.084 1.027.099 1.398.178.372.49.607.94.695.456.093.847 0 1.174-.284.331-.279.55-.684.658-1.218l-.005.005zm-7.272-4.931l3.05 1.13-1.95 5.13-1.11-.41 1.614-4.236-1.94-.719.341-.895h-.005zm-6.252 2.954l3.258-2.294.915-1.736 1.05.538-.906 1.717-.1 3.947-1.197-.616.153-2.285c0-.044.03-.195.085-.445h-.015a2.07 2.07 0 01-.302.313l-1.832 1.429-1.114-.573.005.005zM29.553 72l-2.104 2.597c-.193.24-.45.533-.767.875l.02.02c.277-.23.47-.377.579-.445l3.46-2.103.733.582-1.287 3.776c-.03.093-.144.318-.332.684l.025.02c.267-.377.544-.748.841-1.11l1.96-2.421.832.66-3.47 4.28-1.341-1.062 1.163-3.326c.094-.274.203-.518.327-.729l-.02-.014a8.21 8.21 0 01-.674.464l-3.029 1.84-1.307-1.032 3.47-4.28.911.719.01.004zm-3.713-4.021l2.144 2.46-4.203 3.576-2.06-2.363.733-.621 1.287 1.477.99-.841-1.198-1.375.733-.62 1.198 1.374 1.02-.866-1.371-1.575.732-.621-.005-.005zm-2.886-4.402l.728 1.135-.752 1.487c-.159.308-.243.533-.253.67-.01.137.02.264.084.371l.193.299 1.817-1.135.634.988-4.688 2.93-1.04-1.624c-.703-1.1-.633-1.917.213-2.45.317-.201.654-.28 1-.235.346.044.668.195.97.46l.01-.01c-.064-.26.025-.646.262-1.155l.832-1.74-.01.009zm-2.114 5.287l1.352-.84-.312-.485c-.148-.23-.337-.377-.56-.43a.811.811 0 00-.643.107c-.426.264-.475.646-.153 1.15l.321.503-.005-.005z" fill="#707070"/></svg>
